!!!!SEGMENT: pl-kc--40102-iii-1-saf--001-048_zielenski-mikolaj--offertoria-totius-anni-motteto-de-s-dominico-fulget-in-choro-virginum.krn
!!!cenid: 16xx:1527
!!!COM: Zieleński, Mikołaj
!!!COM-rismID: pe30013481
!!!CDT: <1611->1611
!!!CNT: Polish
!!!GTL: Offertoria totius anni
!!!OTL: Motteto de S. Dominico/Fulget in choro Virginum
!!!OMV: 048
!!!PDT: 1611
!!!AGN:
!!!SMS-siglum: PL-Kc
!!!SMS-shelfmark: 40102 III/1 Saf.
!!!SMS-shelfwork: 001-048 G
!!!SMS-variant:
!!!SMS-altvar:
!!!NIFC-rismSourceID: 990069886
!!!NIFC-islandoraID:
!!!URL-pdf-islandora:
!!!URL-scan: https://cyfrowe.mnk.pl/dlibra/publication/24235/edition/23926/content?ref=desc @EN{Scan on The National Museum in Krakow Website} @PL{Skany w portalu Biblioteka Cyfrowa Muzeum Narodowego w Krakowie}
!!!ONB-nifc: UWAGA: str. 41. Uwaga: W xml metrum 2/1 do źródłowego C| i odpowiednio 3/1 do 3/2
!!!AIN: 4 organ
!!!key:
**kern	**kern	**kern	**kern
*group1	*group1	*group1	*group1
*part4	*part3	*part2	*part1
*staff4	*staff3	*staff2	*staff1
*I""Organo	*I""Organo	*I""Organo	*I""Organo
*I''org	*I''org	*I''org	*I''org
*Iorgan	*Iorgan	*Iorgan	*Iorgan
*ICklav	*ICklav	*ICklav	*ICklav
*clefF4	*clefC3	*clefC4	*clefG2
*k[]	*k[]	*k[]	*k[]
*G:	*G:	*G:	*G:
*M2/1	*M2/1	*M2/1	*M2/1
*met(C)	*met(C)	*met(C)	*met(C)
=1	=1	=1	=1
!	!	!LO:TX:a:t=Fulget in choro Virginum.	!LO:TX:a:t=Motteto de S. Dominico. A 8.
0r	0r	2G/	2dd\
.	.	4G/	4dd\
.	.	4G/	4dd\
.	.	2c\	2ee\
.	.	2B\	2dd\
=2-	=2-	=2-	=2-
1r	1r	2.A/	2.cc\
.	.	4A/	4cc\
2GG/	2d\	1G	1b
4GG/	4d\	.	.
4GG/	4d\	.	.
=3	=3	=3	=3
2C/	2d\	0r	0r
2BB/	2g\	.	.
2.E\	2.g\	.	.
4E\	4g\	.	.
=4-	=4-	=4-	=4-
1D	1f#X	1r	1r
2GG/	2g\	2D/	2dd\
4GG/	4g\	4D/	4dd\
4GG/	4g\	4D/	4dd\
=5	=5	=5	=5
2C/	4e\	2C/	2ee\
.	4f\	.	.
2BB/	4g\	2D/	2dd\
.	4G/	.	.
2C/	4c/	2E/	2cc\
.	2A/	.	.
2D/	.	2D/	2a/
.	4B/	.	.
=6-	=6-	=6-	=6-
2GG/	2d\	2D/	2b/
4GG/	4d\	4D/	4gg\
4GG/	4d\	4D/	4gg\
4D/	4d\	4D/	4ff\
4D/	4A/	4A/	4ff\
2AA/	2e\	2A/	2ee\
=7	=7	=7	=7
2D/	2f#X\	1A	1dd
4D/	4f#\	.	.
4D/	4f#\	.	.
2C/	2g\	1r	1r
2AA/	2.a\	.	.
=8-	=8-	=8-	=8-
2.BB/	.	0r	0r
.	8g#X\L	.	.
!	!LO:SIC:v:s=8f#\J	!	!
.	8fny\J	.	.
.	2.g#\	.	.
8AA/	.	.	.
8GG/	.	.	.
1D	.	.	.
.	8f#X\	.	.
.	8e\	.	.
.	2f#\	.	.
=9	=9	=9	=9
4GG/	4g\	1r	1r
4G\	4d\	.	.
4E\	4e\	.	.
4A\	4f\	.	.
2G\	2g\	4r	4r
.	.	4d\	4dd\
2r	2r	4e\	4b/
.	.	4c\	4ee\
=10-	=10-	=10-	=10-
4r	4r	2G/	2dd\
4GG/	4d\	.	.
4C/	4e\	2r	2r
4AA/	4f\	.	.
2E\	2g\	4r	4r
.	.	4e\	4ee\
2r	2r	4f\	4cc\
.	.	4d\	4dd\
=11	=11	=11	=11
0r	0r	4c\	4ee\
.	.	2G/	2dd\
.	.	4E/	4gg\
.	.	4F/	4ff\
.	.	4D/	4ff\
.	.	4.E/	2ee\
.	.	8F/	.
=12-	=12-	=12-	=12-
2r	2r	2G/	2dd\
4r	4r	2C/	2ee\
2C/	2e\	.	.
.	.	1r	1r
4AA/	4e\	.	.
4BB/	4d\	.	.
4GG/	4d\	.	.
=13	=13	=13	=13
2.BB/	2d\	0r	0r
.	4c/	.	.
4C/	4B/	.	.
1D	4A/	.	.
.	4B/	.	.
.	2A/	.	.
=14-	=14-	=14-	=14-
1GG	1B	2r	2r
.	.	2G/	2dd\
1r	1r	2E/	2ee\
.	.	2A/	2cc#X\
=15	=15	=15	=15
1r	1r	4F#X/	4dd\
.	.	2G/	2b/
.	.	4E/	4cc#X\
2r	2r	2D/	2dd\
4r	4r	4G/	4cc#\
2C/	2g\	2G/	2ee\
=16-	=16-	=16-	=16-
.	.	.	.
4AA/	4a\	4C/	4ee\
2D/	4f\	2D/	2ff\
.	2d\	.	.
4BB/	.	2D/	4dd\
4BB/	4d\	.	2gg\
[2C/	[<2e\	[2G/	.
.	.	.	4ee\
*custos:C	*custos:e	*custos:G	*custos:ee
!!LO:LB:g=original
=17	=17	=17	=17
4C/]	4e\]	4G/]	2.ee\
4C/	4e\	4E/	.
4AA/	2a\	2E/	.
4AA/	.	.	4cc\
2.E\	4g#X\	4E/	4b\
.	2a\	4E/	4ee\
.	.	4.B\	2ee\
4E\	4g#X\	.	.
.	.	8B\	.
=18-	=18-	=18-	=18-
1AA	1a	1A	1ee
1r	1r	1r	1r
=19	=19	=19	=19
1.FF	1.a	1.c	1.ff
2FF/	2A/	2c\	2ff\
=20-	=20-	=20-	=20-
2C/	1e	2c\	2ee\
2C/	.	2C/	2.gg\
1GG	[y1d	2D/	.
.	.	.	8ff\
.	.	.	8ee\
.	.	[y2D/	4dd\
.	.	.	4ee\
=21	=21	=21	=21
*lig	*	*	*
!	!LO:N:vis=xstem:cue	!LO:N:xstem:cue	!
1D	2d\]	4D/]	2ff\
.	.	4E/	.
.	2a\	4F/	2ff\
.	.	4G/	.
1.AA	1.a	4A/	1.ee
.	.	4B\	.
.	.	4c\	.
.	.	4d\	.
*Xlig	*	*	*
=22-	=22-	=22-	=22-
.	.	2e\	.
2AA/	2a\	2e\	2ee\
1E	1g#X	2e\	2ee\
.	.	[y2E/	[y2ee\
=23	=23	=23	=23
!	!	!LO:N:xstem:cue	!LO:N:xstem:cue
00r	00r	4E/]	4ee\]
.	.	4A/	4cc#X\
.	.	4D/	4dd\
.	.	4F/	4dd\
.	.	2E/	2cc#\
.	.	4E/	4b/
.	.	4C/	4ee\
=24-	=24-	=24-	=24-
.	.	4D/	4dd\
.	.	4E/	4b/
.	.	4A/	4cc#X\
.	.	4F#X/	4dd\
.	.	2G/	2dd\
.	.	2A/	2cc#X\
=25	=25	=25	=25
2r	2r	1D	1dd
2.D/	2.f#X\	.	.
.	.	1r	1r
4BB/	4g\	.	.
4C/	4e\	.	.
4GG/	4d\	.	.
=26-	=26-	=26-	=26-
2D/	2d\	0r	0r
4D/	4d\	.	.
4BB/	4d\	.	.
4C/	4c/	.	.
4D/	4A/	.	.
4GG/	4B/	.	.
4BB/	4d\	.	.
=27	=27	=27	=27
2C/	2c/	1r	1r
2D/	2A/	.	.
1GG	1B	1G	1dd
=28-	=28-	=28-	=28-
0r	0r	2G/	2dd\
.	.	2G/	2dd\
.	.	2.c\	[y1ee
.	.	4B\	.
=29	=29	=29	=29
!	!	!	!LO:N:vis=xstem:cue
00r	00r	4A/	2ee\]
.	.	4G/	.
.	.	4F/	1ff
.	.	4E/	.
.	.	2D#X/	.
.	.	2C/	2.ee\
=30-	=30-	=30-	=30-
.	.	4Dny/	.
.	.	4E/	8dd\
.	.	.	8cc\
.	.	4F/	2.dd\
.	.	4D/	.
.	.	2.E/	.
.	.	.	8cc\
.	.	.	8b\
.	.	.	[y2cc\
.	.	8D/	.
.	.	8C/	.
=31	=31	=31	=31
!	!	!	!LO:N:xstem:cue
1r	1r	2G/	4cc\]
.	.	.	8b/
.	.	.	8a/
.	.	2G/	2b/
1C	1e	1C	1cc
=32-	=32-	=32-	=32-
2C/	2e\	0r	0r
2C/	2e\	.	.
2.F\	2f\	.	.
.	2c/	.	.
4E\	.	.	.
=33	=33	=33	=33
4D/	4f\	00r	00r
4C/	4e\	.	.
4BB-X/	4d\	.	.
4AA/	4c/	.	.
4GG/	2d\	.	.
4AA/	.	.	.
4BB-X/	2.g\	.	.
4GG/	.	.	.
=34-	=34-	=34-	=34-
2.AA/	.	.	.
.	8f\	.	.
.	8e\	.	.
.	2.f\	.	.
8GG/	.	.	.
8FF/	.	.	.
2.C/	.	.	.
.	8e\	.	.
.	8d\	.	.
.	4e\	.	.
!LO:SIC:v:s=8BB-/	!	!	!
8BBny/	4f\	.	.
8AA/	.	.	.
=35	=35	=35	=35
2GG/	4g\	1r	1r
.	8f\	.	.
.	8e\	.	.
2GG/	2d\	.	.
1C	1e	2r	2r
.	.	2.c\	2.ee\
=36-	=36-	=36-	=36-
0r	0r	.	.
.	.	4A/	4ff\
.	.	4B-X\	4dd\
.	.	4G/	4ee\
.	.	2A/	2cc#X\
.	.	4D/	4dd\
.	.	4F/	4a/
*custos:D	*custos:f	*custos:G	*custos:b
!!LO:LB:g=original
=37	=37	=37	=37
1r	1r	4G/	4b/
.	.	4A/	4cc\
.	.	4D/	4dd\
.	.	4F/	4dd\
2r	2r	4.E/	4.ee\
.	.	8E/	8ee\
2.D/	2.f#X\	2D/	2a/
=38-	=38-	=38-	=38-
.	.	0r	0r
4BB/	4g\	.	.
4C/	4e\	.	.
4GG/	4d\	.	.
2D/	2d\	.	.
4GG/	4d\	.	.
4BB/	4d\	.	.
=39	=39	=39	=39
4C/	4e\	1r	1r
4D/	4f#X\	.	.
4GG/	4g\	.	.
4BB/	4g\	.	.
4.AA/	4.a\	2r	2r
8AA/	8a\	.	.
2GG/	2d\	4r	4r
.	.	4G/	4dd\
=40-	=40-	=40-	=40-
2r	2r	4.c\	4.cc\
.	.	8c\	8cc\
4r	4r	2G/	2b/
4GG/	4d\	.	.
4.C/	4.c/	2r	2r
8C/	8c/	.	.
2GG/	2B/	4r	4r
.	.	4G/	4dd\
=41	=41	=41	=41
1r	1r	4.c\	4.cc\
.	.	8c\	8cc\
.	.	4G/	4b/
.	.	4E/	4ee\
2r	2r	4F/	4dd\
.	.	4G/	4dd\
4r	4r	4C/	4ee\
4GG/	4d\	4D/	4gg\
=42-	=42-	=42-	=42-
4.D/	4.f\	4.D/	4.ff\
8D/	8f\	8D/	8ff\
4AA/	4a\	4E/	4ee\
4FF/	4a\	4F/	4dd\
2GG/	2e\	2E/	2ee\
2AA/	2a\	2E/	2ee\
=43	=43	=43	=43
1DD	2.f#X\	2D/	1ff#X
.	.	2.d\	.
.	4f#\	.	.
1.GG	2g\	.	2r
.	.	4d\	.
.	2d\	4G/	1gg\
.	.	4A/	.
=44-	=44-	=44-	=44-
.	2.d\	4B\	.
.	.	4c\	.
2GG/	.	2d\	2gg\
.	4d\	.	.
[>1C	4c/	2r	4gg\
.	4d\	.	4ffny\
.	4e\	[<2c\	4ee\
.	4fny\	.	4dd\
=45	=45	=45	=45
1C]	1g	2c\]	2cc\
.	.	2C/	2ee\
2.FF/	1.a	1C	2ff\
.	.	.	1ff
4GG/	.	.	.
=46-	=46-	=46-	=46-
2.AA/	.	2.C/	.
.	2a\	.	2.ee\
4BB/	.	4D/	.
[1C	1e	4E/	.
.	.	4F/	4cc\
.	.	[2G/	4ee\
.	.	.	4ff\
=47	=47	=47	=47
1C]	1.g	2G/]	2gg\
.	.	2C/	2ee\
1GG	.	0D	2dd\
.	2g\	.	1dd
=48-	=48-	=48-	=48-
1.D	0d	.	.
.	.	.	4cc\
.	.	.	4b/
.	.	2.d\	2a/
2D/	.	.	[<2dd\
.	.	4c\	.
=49	=49	=49	=49
1GG	2d\	4B\	2dd\]
.	.	4A/	.
.	2g\	4G/	2dd\
.	.	4F/	.
1.C	2.g\	2E/	2.ee\
.	.	2.G/	.
.	4f\	.	4dd\
=50-	=50-	=50-	=50-
.	2e\	.	2cc\
.	.	4A/	.
2GG/	2d\	2B\	2b/
1C	2c/	2G/	4cc\
.	.	.	4dd\
.	[<2g\	[<2c\	4ee\
.	.	.	4ff\
=51	=51	=51	=51
0C	2g\]	2c\]	2.gg\
.	1g	2c\	.
.	.	.	4ff\
.	.	2.G/	2ee\
.	2G/	.	2ee\
.	.	4A/	.
=52-	=52-	=52-	=52-
!	!	!LO:SIC:v:s=0Gl	!
0GGl	0dl	0Al	0ddl
==	==	==	==
*-	*-	*-	*-
!!!system-decoration: *
!!!RDF**kern: > = above
!!!RDF**kern: < = below
!!!RDF**kern: l = terminal long
!!!ENC: Andrzej Gręziak
!!!END: 2021-12-17
!!!ENC: Marta Lawrence
!!!END: 2021-12-21
